!!! OTL: Berkowitz341
!!! Chapter: 1
!!! Section: III
!!! Page: 83
!!! Mode: 
!!! Encoder: DJB
**kern
*staff1
*I"Piano
=1-
*clefG2
*k[b-]
*F:
*M6/8
8r
8r
8r
8r
8r
8cc\
=2
4b-\
8g/
4e/
8d/
=3
8.c/L
16d/K
8e/J
8f/
8r
8dd\
=4
4cc\
8a/
4f#/
8e-/
=5
8.d/L
16e/K
8f#/J
8.g/L
16a/K
8b-/J
=6
8.cc/L
16a/K
8f/J
8c/L
8a/
8g/J
=7
!!linebreak:original
4.g/
4f/
8r
==
*-
